icon-themes/breeze_svg/svx/res/slidezoombutton_10.svg

<svg height="10" width="10" xmlns="http://www.w3.org/2000/svg"><g><path d="m5 2a3 3 0 0 0 -3 3 3 3 0 0 0 3 3 3 3 0 0 0 3-3 3 3 0 0 0 -3-3z" fill="#eff0f1"/><path d="m5 1c-2.209139 0-4 1.790861-4 4s1.790861 4 4 4 4-1.790861 4-4-1.790861-4-4-4zm0 1c1.656854 0 3 1.3431458 3 3 0 1.656854-1.343146 3-3 3s-3-1.343146-3-3c0-1.6568542 1.343146-3 3-3z" fill="#4d4d4d"/></g></svg>

<?xml version="1.0" encoding="UTF-8" standalone="no"?>
<!-- Created with Inkscape (http://www.inkscape.org/) -->

<svg
   xmlns:dc="http://purl.org/dc/elements/1.1/"
   xmlns:cc="http://creativecommons.org/ns#"
   xmlns:rdf="http://www.w3.org/1999/02/22-rdf-syntax-ns#"
   xmlns:svg="http://www.w3.org/2000/svg"
   xmlns="http://www.w3.org/2000/svg"
   xmlns:xlink="http://www.w3.org/1999/xlink"
   xmlns:sodipodi="http://sodipodi.sourceforge.net/DTD/sodipodi-0.dtd"
   xmlns:inkscape="http://www.inkscape.org/namespaces/inkscape"
   width="10"
   height="10"
   id="svg3288"
   version="1.1"
   inkscape:version="0.91 r13725"
   sodipodi:docname="slidezoombutton_10.svg">
  <defs
     id="defs3290">
    <linearGradient
       id="linearGradient3856-22">
      <stop
         style="stop-color:#3daee9;stop-opacity:1;"
         offset="0"
         id="stop3858-16" />
      <stop
         style="stop-color:#3daee9;stop-opacity:1;"
         offset="1"
         id="stop3860-857" />
    </linearGradient>
    <linearGradient
       y2="397.65405"
       x2="453.00928"
       y1="397.65405"
       x1="431.20428"
       gradientUnits="userSpaceOnUse"
       id="linearGradient5752"
       xlink:href="#linearGradient3856-22"
       inkscape:collect="always" />
  </defs>
  <sodipodi:namedview
     id="base"
     pagecolor="#ffffff"
     bordercolor="#666666"
     borderopacity="1.0"
     inkscape:pageopacity="0.0"
     inkscape:pageshadow="2"
     inkscape:zoom="31.392433"
     inkscape:cx="-0.23582636"
     inkscape:cy="4.4209898"
     inkscape:current-layer="layer1"
     showgrid="true"
     inkscape:grid-bbox="true"
     inkscape:document-units="px"
     inkscape:window-width="2560"
     inkscape:window-height="1378"
     inkscape:window-x="-8"
     inkscape:window-y="-8"
     inkscape:window-maximized="1"
     inkscape:snap-bbox="true">
    <inkscape:grid
       type="xygrid"
       id="grid3296"
       empspacing="5"
       visible="true"
       enabled="true"
       snapvisiblegridlinesonly="true" />
  </sodipodi:namedview>
  <metadata
     id="metadata3293">
    <rdf:RDF>
      <cc:Work
         rdf:about="">
        <dc:format>image/svg+xml</dc:format>
        <dc:type
           rdf:resource="http://purl.org/dc/dcmitype/StillImage" />
        <dc:title />
      </cc:Work>
    </rdf:RDF>
  </metadata>
  <g
     id="layer1"
     inkscape:label="Layer 1"
     inkscape:groupmode="layer"
     transform="translate(0,-6)">
    <path
       style="color:#000000;fill:#eff0f1;fill-opacity:1;fill-rule:nonzero;stroke:none;stroke-width:2;marker:none;visibility:visible;display:inline;overflow:visible;enable-background:accumulate"
       d="M 5 2 A 3 3 0 0 0 2 5 A 3 3 0 0 0 5 8 A 3 3 0 0 0 8 5 A 3 3 0 0 0 5 2 z "
       transform="translate(0,6)"
       id="path4125" />
    <path
       style="color:#000000;fill:#4d4d4d;fill-opacity:1;fill-rule:nonzero;stroke:none;stroke-width:2;marker:none;visibility:visible;display:inline;overflow:visible;enable-background:accumulate"
       d="M 5 1 C 2.790861 1 1 2.790861 1 5 C 1 7.209139 2.790861 9 5 9 C 7.209139 9 9 7.209139 9 5 C 9 2.790861 7.209139 1 5 1 z M 5 2 C 6.656854 2 8 3.3431458 8 5 C 8 6.656854 6.656854 8 5 8 C 3.343146 8 2 6.656854 2 5 C 2 3.3431458 3.343146 2 5 2 z "
       transform="translate(0,6)"
       id="path4127" />
  </g>
</svg>
